X: 1
T: BELLES OF TIPPERARY -- REEL
B: Ryan's Mammoth Collection of Fiddle Tunes
R: reel
M: 2/4
L: 1/16
Z: Contributed 20010525022734 by John Chambers jc:trillian.mit.edu
K: D
  vD3D F2A2 | defe dcBA | BcBA B2b2 | afde fee2 \
|  D3D F2A2 | defe dcBA | BcBA BcdB | AGFE ADD2 :|
|: a3b agfa | gfeg fedc | BcBA B2b2 | afde fee2 \
|  a3b agfa | gfeg fedc | BcBA BcdB | AGFE ADD2 :|
